resources/svg/cog-o.svg

<svg width="15" height="15" viewBox="0 0 15 15" fill="none" xmlns="http://www.w3.org/2000/svg">
<path fill-rule="evenodd" clip-rule="evenodd" d="M5.944 0.5L5.858 0.936707L5.52901 2.53467C5.00301 2.73554 4.526 3.02037 4.095 3.35815L2.487 2.8205L2.05501 2.68658L1.83101 3.07233L0.723999 4.9231L0.5 5.3089L0.828003 5.5957L2.07201 6.65399C2.02701 6.93081 1.96901 7.20461 1.96901 7.49542C1.96901 7.78623 2.02701 8.0601 2.07201 8.33691L0.828003 9.3952L0.5 9.68201L0.723999 10.0677L1.83101 11.9186L2.05501 12.3053L2.487 12.1704L4.095 11.6328C4.526 11.9705 5.00301 12.2553 5.52901 12.4562L5.858 14.0541L5.944 14.4909H9.05501L9.142 14.0541L9.47 12.4562C9.996 12.2553 10.473 11.9705 10.904 11.6328L12.512 12.1704L12.944 12.3053L13.169 11.9186L14.275 10.0677L14.5 9.68201L14.171 9.3952L12.927 8.33691C12.973 8.0601 13.03 7.78623 13.03 7.49542C13.03 7.20461 12.973 6.93081 12.927 6.65399L14.171 5.5957L14.5 5.3089L14.275 4.9231L13.169 3.07233L12.944 2.68658L12.512 2.8205L10.904 3.35815C10.473 3.02037 9.996 2.73554 9.47 2.53467L9.142 0.936707L9.05501 0.5H5.944Z" stroke="black" stroke-linecap="square" stroke-linejoin="round"/>
<path fill-rule="evenodd" clip-rule="evenodd" d="M9.49963 7.49542C9.49963 8.5987 8.60363 9.49414 7.49963 9.49414C6.39563 9.49414 5.49963 8.5987 5.49963 7.49542C5.49963 6.39214 6.39563 5.49677 7.49963 5.49677C8.60363 5.49677 9.49963 6.39214 9.49963 7.49542Z" stroke="black" stroke-linecap="square" stroke-linejoin="round"/>
</svg>

<svg viewBox="0 0 15 15" fill="none" xmlns="http://www.w3.org/2000/svg" fill="currentColor"><path clip-rule="evenodd" d="M5.944.5l-.086.437-.329 1.598a5.52 5.52 0 00-1.434.823L2.487 2.82l-.432-.133-.224.385L.724 4.923.5 5.31l.328.287 1.244 1.058c-.045.277-.103.55-.103.841 0 .291.058.565.103.842L.828 9.395.5 9.682l.224.386 1.107 1.85.224.387.432-.135 1.608-.537c.431.338.908.622 1.434.823l.329 1.598.086.437h3.111l.087-.437.328-1.598a5.524 5.524 0 001.434-.823l1.608.537.432.135.225-.386 1.106-1.851.225-.386-.329-.287-1.244-1.058c.046-.277.103-.55.103-.842 0-.29-.057-.564-.103-.841l1.244-1.058.329-.287-.225-.386-1.106-1.85-.225-.386-.432.134-1.608.537a5.52 5.52 0 00-1.434-.823L9.142.937 9.055.5H5.944z" stroke="currentColor" stroke-linecap="square" stroke-linejoin="round"/><path clip-rule="evenodd" d="M9.5 7.495a2 2 0 01-4 0 2 2 0 014 0z" stroke="currentColor" stroke-linecap="square" stroke-linejoin="round"/></svg>
